assets/icons/sun.svg

<svg width="16" height="16" viewBox="0 0 16 16" fill="none" xmlns="http://www.w3.org/2000/svg">
<g clip-path="url(#clip0_1968_7185)">
<path d="M7.9999 2.80004C8.32027 2.80004 8.5999 2.55346 8.5999 2.2331V1C8.5999 0.668633 8.33127 0.400004 7.9999 0.400004C7.66853 0.400004 7.3999 0.668633 7.3999 1V2.2331C7.3999 2.55346 7.67954 2.80004 7.9999 2.80004ZM11.6432 4.35702C11.8804 4.59416 12.2639 4.58445 12.5011 4.34733L13.3739 3.47476C13.6083 3.2404 13.6083 2.86039 13.3739 2.626C13.1395 2.39162 12.7595 2.39164 12.5252 2.62605L11.6526 3.49881C11.4155 3.73599 11.4061 4.11986 11.6432 4.35702ZM3.49807 4.34667C3.72449 4.57304 4.09637 4.54957 4.32277 4.32317C4.54914 4.09682 4.57265 3.72502 4.34637 3.49857L3.4746 2.6262C3.24029 2.39173 2.86025 2.39166 2.62585 2.62605C2.3915 2.86041 2.39152 3.24038 2.6259 3.47471L3.49807 4.34667ZM7.9999 12C10.2091 12 11.9999 10.2092 11.9999 8.00001C11.9999 5.79081 10.2091 4.00001 7.9999 4.00001C5.7907 4.00001 3.9999 5.79081 3.9999 8.00001C3.9999 10.2092 5.7907 12 7.9999 12ZM14.9999 8.60001C15.3313 8.60001 15.5999 8.33138 15.5999 8.00001C15.5999 7.66863 15.3313 7.40001 14.9999 7.40001H13.7668C13.4464 7.40001 13.1999 7.67964 13.1999 8.00001C13.1999 8.32037 13.4464 8.60001 13.7668 8.60001H14.9999ZM2.23299 8.60001C2.55336 8.60001 2.79994 8.32037 2.79994 8.00001C2.79994 7.67964 2.55336 7.40001 2.23299 7.40001H0.999902C0.668531 7.40001 0.399902 7.66863 0.399902 8.00001C0.399902 8.33138 0.668532 8.60001 0.999903 8.60001H2.23299ZM2.6258 13.3739C2.86024 13.6083 3.24034 13.6083 3.47475 13.3739L4.34652 12.5019C4.57292 12.2754 4.54944 11.9035 4.32302 11.6771C4.09668 11.4507 3.72491 11.4272 3.49842 11.6534L2.62605 12.5248C2.3914 12.7591 2.39129 13.1394 2.6258 13.3739ZM12.5252 13.3738C12.7595 13.6083 13.1396 13.6083 13.374 13.374C13.6083 13.1396 13.6083 12.7596 13.3739 12.5253L12.5017 11.6533C12.2753 11.427 11.9034 11.4504 11.677 11.6768C11.4507 11.9032 11.4272 12.275 11.6534 12.5014L12.5252 13.3738ZM7.9999 15.6C8.33127 15.6 8.5999 15.3314 8.5999 15V13.7669C8.5999 13.4465 8.32027 13.2 7.9999 13.2C7.67954 13.2 7.3999 13.4465 7.3999 13.7669V15C7.3999 15.3314 7.66853 15.6 7.9999 15.6Z" fill="url(#paint0_linear_1968_7185)"/>
</g>
<defs>
<linearGradient id="paint0_linear_1968_7185" x1="19.3999" y1="-3.4" x2="19.3999" y2="19.4" gradientUnits="userSpaceOnUse">
<stop stop-color="#26B9FC"/>
<stop offset="1" stop-color="#3C2BFE"/>
</linearGradient>
<clipPath id="clip0_1968_7185">
<rect width="16" height="16" fill="white" transform="matrix(1 0 0 -1 0 16)"/>
</clipPath>
</defs>
</svg>

<svg xmlns="http://www.w3.org/2000/svg" width="16" height="16" fill="none" data-c="1"><g clip-path="url(#a)"><path fill="url(#b)" d="M8 2.8c.32 0 .6-.247.6-.567V1a.6.6 0 0 0-1.2 0v1.233c0 .32.28.567.6.567m3.643 1.557c.237.237.62.227.858-.01l.873-.872a.6.6 0 1 0-.849-.849l-.872.873a.607.607 0 0 0-.01.858m-8.145-.01c.226.226.598.203.825-.024.226-.226.25-.598.023-.824l-.871-.873a.6.6 0 1 0-.85.849zM8 12a4 4 0 1 0 0-8 4 4 0 0 0 0 8m7-3.4a.6.6 0 1 0 0-1.2h-1.233c-.32 0-.567.28-.567.6s.246.6.567.6zm-12.767 0c.32 0 .567-.28.567-.6s-.247-.6-.567-.6H1a.6.6 0 1 0 0 1.2zm.393 4.774a.6.6 0 0 0 .849 0l.872-.872c.226-.227.202-.599-.024-.825s-.598-.25-.825-.024l-.872.872a.6.6 0 0 0 0 .849m9.9 0a.6.6 0 1 0 .848-.849l-.872-.872c-.227-.226-.599-.203-.825.024-.226.226-.25.598-.024.824zM8 15.6a.6.6 0 0 0 .6-.6v-1.233c0-.32-.28-.567-.6-.567s-.6.247-.6.567V15a.6.6 0 0 0 .6.6"/></g><defs><linearGradient id="b" x1="19.4" x2="19.4" y1="-3.4" y2="19.4" gradientUnits="userSpaceOnUse"><stop stop-color="#26B9FC"/><stop offset="1" stop-color="#3C2BFE"/></linearGradient><clipPath id="a"><path fill="#fff" d="M0 16h16V0H0z"/></clipPath></defs></svg>
